src/assets/icon-google.svg

<svg viewBox="0 0 24 24" width="24" height="24" xmlns="http://www.w3.org/2000/svg">
  <g transform="matrix(1, 0, 0, 1, 27.009001, -39.238998)">
    <path fill="#4285F4" d="M -3.264 51.509 C -3.264 50.719 -3.334 49.969 -3.454 49.239 L -14.754 49.239 L -14.754 53.749 L -8.284 53.749 C -8.574 55.229 -9.424 56.479 -10.684 57.329 L -10.684 60.329 L -6.824 60.329 C -4.564 58.239 -3.264 55.159 -3.264 51.509 Z"/>
    <path fill="#34A853" d="M -14.754 63.239 C -11.514 63.239 -8.804 62.159 -6.824 60.329 L -10.684 57.329 C -11.764 58.049 -13.134 58.489 -14.754 58.489 C -17.884 58.489 -20.534 56.379 -21.484 53.529 L -25.464 53.529 L -25.464 56.619 C -23.494 60.539 -19.444 63.239 -14.754 63.239 Z"/>
    <path fill="#FBBC05" d="M -21.484 53.529 C -21.734 52.809 -21.864 52.039 -21.864 51.239 C -21.864 50.439 -21.724 49.669 -21.484 48.949 L -21.484 45.859 L -25.464 45.859 C -26.284 47.479 -26.754 49.299 -26.754 51.239 C -26.754 53.179 -26.284 54.999 -25.464 56.619 L -21.484 53.529 Z"/>
    <path fill="#EA4335" d="M -14.754 43.989 C -12.984 43.989 -11.404 44.599 -10.154 45.789 L -6.734 42.369 C -8.804 40.429 -11.514 39.239 -14.754 39.239 C -19.444 39.239 -23.494 41.939 -25.464 45.859 L -21.484 48.949 C -20.534 46.099 -17.884 43.989 -14.754 43.989 Z"/>
  </g>
</svg>

<svg viewBox="0 0 24 24" xmlns="http://www.w3.org/2000/svg">
<g transform="translate(27.009 -39.239)">
<path d="m-3.264 51.509c0-0.79-0.07-1.54-0.19-2.27h-11.3v4.51h6.47c-0.29 1.48-1.14 2.73-2.4 3.58v3h3.86c2.26-2.09 3.56-5.17 3.56-8.82z" fill="#4285F4"/>
<path d="m-14.754 63.239c3.24 0 5.95-1.08 7.93-2.91l-3.86-3c-1.08 0.72-2.45 1.16-4.07 1.16-3.13 0-5.78-2.11-6.73-4.96h-3.98v3.09c1.97 3.92 6.02 6.62 10.71 6.62z" fill="#34A853"/>
<path d="m-21.484 53.529c-0.25-0.72-0.38-1.49-0.38-2.29s0.14-1.57 0.38-2.29v-3.09h-3.98c-0.82 1.62-1.29 3.44-1.29 5.38s0.47 3.76 1.29 5.38l3.98-3.09z" fill="#FBBC05"/>
<path d="m-14.754 43.989c1.77 0 3.35 0.61 4.6 1.8l3.42-3.42c-2.07-1.94-4.78-3.13-8.02-3.13-4.69 0-8.74 2.7-10.71 6.62l3.98 3.09c0.95-2.85 3.6-4.96 6.73-4.96z" fill="#EA4335"/>
</g>
</svg>
